src/assets/img/product-card-ironing.svg

<svg width="20" height="20" viewBox="0 0 20 20" fill="none" xmlns="http://www.w3.org/2000/svg">
<path d="M19.9965 15.3616L18.4739 3.94612C18.364 3.12175 17.6536 2.5 16.8219 2.5H7.08324C6.85293 2.5 6.66656 2.68636 6.66656 2.91667C6.66656 3.14698 6.85293 3.33335 7.08324 3.33335H16.8219C17.2378 3.33335 17.5934 3.64421 17.6479 4.05639L18.2184 8.33329H15.0445L17.3362 6.58077C17.5193 6.4412 17.5535 6.17957 17.4143 5.99687C17.2736 5.81336 17.0123 5.78 16.83 5.91914L13.6731 8.33325H7.08324C6.84371 8.33325 6.60707 8.34587 6.3736 8.36923L3.16969 5.91914C2.98657 5.77996 2.72618 5.81336 2.5854 5.99687C2.44626 6.17957 2.48044 6.4412 2.66352 6.58077L5.2733 8.57645C2.24326 9.37941 0 12.1373 0 15.4165C0 15.6468 0.186365 15.8332 0.416675 15.8332H3.86558L2.66356 16.7524C2.48048 16.8919 2.4463 17.1536 2.58544 17.3363C2.66763 17.4437 2.79133 17.4999 2.91665 17.4999C3.00536 17.4999 3.09407 17.4718 3.16973 17.414L5.23693 15.8332H14.7629L16.8301 17.414C16.9058 17.4718 16.9945 17.4999 17.0832 17.4999C17.2085 17.4999 17.3322 17.4437 17.4144 17.3363C17.5535 17.1536 17.5194 16.8919 17.3362 16.7524L16.1342 15.8332H19.5831C19.7036 15.8332 19.8175 15.7815 19.8964 15.6912C19.9754 15.6005 20.012 15.4804 19.9965 15.3616ZM12.5834 9.16664L9.99988 11.1422L7.4164 9.1666H12.5834V9.16664ZM4.95529 14.9999H0.847178C1.04128 12.0611 3.27824 9.67808 6.14626 9.24402L9.31427 11.6666L4.95529 14.9999ZM6.32665 14.9999L9.99988 12.1909L13.6731 14.9999H6.32665ZM15.0445 14.9999L10.6855 11.6666L13.9548 9.16664H18.3299L19.107 14.9999H15.0445Z" fill="#787A80"/>
</svg>

<svg width="20" height="20" fill="none" xmlns="http://www.w3.org/2000/svg"><path d="M19.997 15.362 18.474 3.946A1.672 1.672 0 0 0 16.822 2.5H7.083a.416.416 0 1 0 0 .833h9.739c.416 0 .771.311.826.723l.57 4.277h-3.174l2.292-1.752a.417.417 0 1 0-.506-.662l-3.157 2.414h-6.59c-.24 0-.476.013-.71.036L3.17 5.92a.417.417 0 0 0-.506.662l2.61 1.995C2.243 9.38 0 12.137 0 15.416c0 .23.186.417.417.417h3.449l-1.202.92a.417.417 0 1 0 .506.661l2.067-1.58h9.526l2.067 1.58a.415.415 0 0 0 .584-.078.417.417 0 0 0-.078-.584l-1.202-.919h3.45a.415.415 0 0 0 .413-.471Zm-7.414-6.195L10 11.142 7.416 9.167h5.167ZM4.955 15H.847c.194-2.939 2.431-5.322 5.3-5.756l3.167 2.423L4.955 15Zm1.372 0L10 12.19 13.673 15H6.327Zm8.717 0-4.359-3.333 3.27-2.5h4.375L19.107 15h-4.063Z" fill="#787A80"/></svg>
